X:063
T: Apples in Winter
N: O'Farrell's Pocket Companion v.1 (Sky ed. p.46)
N: "Irish"
M: 6/8
L: 1/8
R: jig
Q: 320
K: A
(3A/B/c/|dAF FAF|FAF F2d|AFE EFE|EFE EFA|
dAF FEF|DFA d2e| fed cdB|A3 A2 :|
d|cAe cAe|cAe edc|dBf dBf|dBf fed|
cAe cAe|cAe e2a|fed cdB|A3 A2:|
